X:1
T:De torrente in via bibet
T:De torrente in via bibet
L:1/8
M:4/4
K:Bb
V:1 treble-8 nm="Piano" snm="Pno."
V:1
 z2 z2 z2 B2 | e2 e2 e2 e2 | e2 e2 e2 E2 | z8 | z2 z2 z2 C2 | c2 c2 c2 c2 | c2 c2 c2 C2 | z8 | z8 | %9
w: Prop-|ter- ea ex- al-|ta- bit ca- put,||prop-|ter- ea ex- al-|ta- bit ca- put|||
 z8 | z2 D2 d2 d2 | d2 d2 d2 d2 | d2 D2 z4 | z8 | z2 z2 z2 G2 | G2 G2 G2 G2 | G2 G2 G2 G2 | z8 | %18
w: |prop- ter- ea-|ex- al- ta- bit-|ca- put,||prop-|ter- ea ex- al-|ta- bit- ca- put||
 z8 | z8 | z8 | z8 | z8 | z8 | z8 | z8 | z8 | z8 | z8 | z8 | z8 | z8 |] %32
w: ||||||||||||||

